X: 25845
T: Master Shane
R: reel
M: 4/4
K: Gmajor
ef|:gf ge dB Ac|BA GF ~G2 AB|cB AG AG FG|AG FE DE FD|
gf ge dB Ac|BA GF G2 AB|cB AG FD EF|GE DB, G,4:|
|:(3aaa ag fd ef|ge dB G2 AB|(3ccc ec (3BBB dB|AG FE D4|
(3aaa ag fd ef|ge dB G2 AB|(3ccc ec (3BBB dB|AD EF G4:|

